symbolic/22x22/apps/distributor-logo-artix.svg

<svg xmlns="http://www.w3.org/2000/svg" height="22" width="22" version="1.1">
 <path style="opacity:.2" d="m11 1.5-3.5917969 7.1855469 9.2968749 4.2265621zm-4.5761719 9.154297-5.4238281 10.845703 16-7zm11.775391 5.246094-4.976563 2.488281 7.777344 3.111328z"/>
 <path style="fill:#3bb2d4" d="m11 1-3.5917969 7.1855469 9.2968749 4.2265621zm-4.5761719 9.154297-5.4238281 10.845703 16-7zm11.775391 5.246094-4.976563 2.488281 7.777344 3.111328z"/>
 <path style="opacity:.2;fill:#ffffff" d="m11 1l-3.5917969 7.1855469 0.203125 0.0917969 3.3886719-6.7773438 5.380859 10.765625 0.324219 0.146484-5.705078-11.412109zm-4.5761719 9.154297l-5.4238281 10.845703 0.3203125-0.140625 5.1035156-10.205078 9.9511719 3.619141 0.625-0.273438-10.576172-3.845703zm11.775391 5.246094l-4.976563 2.488281 0.554688 0.222656 4.421875-2.210937 2.488281 4.974609 0.3125 0.125-2.800781-5.599609z"/>
</svg>

<svg xmlns="http://www.w3.org/2000/svg" height="22" width="22"><path style="opacity:.2" d="M11 1.5 7.408 8.686l9.297 4.226zm-4.576 9.154L1 21.5l16-7zM18.199 15.9l-4.976 2.489L21 21.5z"/><path style="fill:#3bb2d4" d="M11 1 7.408 8.186l9.297 4.226zm-4.576 9.154L1 21l16-7zM18.199 15.4l-4.976 2.489L21 21z"/><path style="opacity:.2;fill:#fff" d="M11 1 7.408 8.186l.203.091L11 1.5l5.38 10.766.325.146L11 1zm-4.576 9.154L1 21l.32-.14 5.104-10.206 9.951 3.62L17 14 6.424 10.154zM18.199 15.4l-4.976 2.489.554.222 4.422-2.21 2.489 4.974L21 21l-2.8-5.6z"/></svg>
